static/logos/workday-wordmark-color.svg

<svg width="100" height="41" viewBox="0 0 100 41" fill="none" xmlns="http://www.w3.org/2000/svg">
<g clip-path="url(#clip0_1_358)">
<path d="M51.1652 0.0218616C54.7413 -0.101434 58.3408 0.43732 61.7138 1.63612C66.7882 3.42025 71.3233 6.68983 74.6418 10.9251C76.1013 12.7831 77.3241 14.8254 78.2823 16.9863C78.4522 17.3459 78.5831 17.75 78.4921 18.1506C78.3808 18.8231 77.7921 19.3791 77.1151 19.4464C76.412 19.5493 75.6854 19.1099 75.4347 18.4464C73.5291 13.9553 70.2772 10.0542 66.2205 7.35379C63.7127 5.67532 60.9003 4.45309 57.962 3.7688C54.173 2.8811 50.1836 2.8811 46.3935 3.7661C40.9823 5.01418 36.0276 8.12301 32.533 12.4428C31.0514 14.2629 29.828 16.2918 28.9057 18.4503C28.706 18.9518 28.2475 19.3451 27.7124 19.4331C27.1964 19.533 26.6347 19.3545 26.2748 18.9695C25.8506 18.5439 25.712 17.8635 25.9307 17.3047C28.4691 11.294 33.1691 6.24464 38.9475 3.23907C42.7112 1.26603 46.9213 0.165489 51.1652 0.0218616Z" fill="#F49813"/>
<path d="M46.4329 18.5288C46.4115 18.2167 46.7063 17.9831 46.9985 17.9756C47.3783 17.9655 47.7591 17.9686 48.1396 17.9741C48.404 17.9831 48.7126 18.1596 48.7115 18.4569C48.7251 21.9496 48.7032 25.4433 48.7232 28.938C50.1361 27.3644 51.5611 25.7994 52.979 24.2306C53.2583 23.9547 53.479 23.5368 53.9134 23.5009C54.4985 23.4766 55.0853 23.4911 55.6712 23.4919C55.897 23.4716 56.1489 23.6788 56.0697 23.9203C55.977 24.1065 55.8071 24.2345 55.6684 24.3823C54.1354 25.9168 52.5962 27.4458 51.0708 28.9869C52.5442 30.6716 53.9974 32.3735 55.4642 34.0644C55.6528 34.3051 55.8892 34.5093 56.0474 34.7745C56.1634 34.9819 55.9712 35.2343 55.7492 35.2441C55.2622 35.2714 54.774 35.2441 54.2857 35.2558C54.0318 35.2499 53.7572 35.2872 53.5266 35.156C53.2837 35.0164 53.1361 34.7667 52.9622 34.5566C51.5474 32.7722 50.1419 30.9806 48.7219 29.1994C48.7074 30.956 48.7177 32.712 48.7165 34.4675C48.711 34.6702 48.7525 34.9143 48.5762 35.0622C48.2957 35.3334 47.8783 35.2382 47.5283 35.2558C47.2177 35.2452 46.8544 35.3134 46.6021 35.0837C46.4616 34.9741 46.4247 34.7872 46.4302 34.6209C46.4341 29.2561 46.4286 23.892 46.4329 18.5288Z" fill="#3069B5"/>
<path d="M39.9942 23.4626C40.7038 23.2341 41.5033 23.1907 42.1981 23.4919C42.442 23.6066 42.7251 23.8511 42.615 24.1523C42.5038 24.5306 42.4087 24.9133 42.276 25.2849C42.1779 25.5518 41.869 25.6509 41.6088 25.5988C41.0236 25.4982 40.449 25.3046 39.849 25.3241C39.4303 25.3142 39.0439 25.5392 38.7576 25.8308C38.2955 26.2835 38.0563 26.9164 37.949 27.5445C37.8638 27.9983 37.8882 28.462 37.8843 28.9205C37.8843 30.8473 37.8849 32.7754 37.8838 34.7022C37.9111 35.0192 37.5838 35.2344 37.2981 35.2453C36.9059 35.2508 36.5145 35.2559 36.1228 35.2422C35.8396 35.2274 35.5209 35.0203 35.5576 34.7011C35.556 31.133 35.5537 27.566 35.5584 23.9979C35.5342 23.643 35.9267 23.4501 36.2346 23.4834C36.6209 23.5088 37.1482 23.3632 37.3994 23.7525C37.59 24.204 37.6807 24.6915 37.8596 25.147C38.3981 24.4066 39.1123 23.754 39.9942 23.4626Z" fill="#3069B5"/>
<path d="M0 23.7348C0.108984 23.6097 0.236328 23.4743 0.417969 23.4872C0.95 23.4821 1.48359 23.4704 2.01523 23.495C2.28516 23.5028 2.47109 23.7404 2.51055 23.9919C3.03359 26.1222 3.54727 28.2557 4.06797 30.3868C4.2207 31.045 4.40665 31.6963 4.50626 32.3657C4.60899 32.9671 4.6293 33.5774 4.72694 34.1799C4.86133 33.32 4.98164 32.4545 5.21328 31.6145C5.89413 29.071 6.5746 26.528 7.25626 23.9852C7.30938 23.6953 7.58164 23.4891 7.87109 23.4891C8.46328 23.4743 9.05665 23.4844 9.64883 23.4844C9.96641 23.4696 10.3063 23.6554 10.3828 23.9813C10.8914 25.8354 11.3938 27.693 11.9004 29.5489C12.2078 30.7507 12.6105 31.9322 12.7844 33.1654C12.8324 33.505 12.8793 33.8454 12.9492 34.1827C13.1402 32.2453 13.6379 30.3602 14.0473 28.4631C14.3852 26.9537 14.7156 25.4426 15.0574 23.9331C15.1078 23.63 15.4281 23.4774 15.7101 23.486C16.1891 23.4833 16.6688 23.4696 17.147 23.4939C17.4309 23.5021 17.5941 23.8166 17.4941 24.0702C16.5332 27.6216 15.5758 31.1752 14.6145 34.7266C14.5629 35.0113 14.3152 35.2336 14.025 35.2383C13.2828 35.2626 12.5391 35.2442 11.7969 35.2481C11.5309 35.2645 11.2496 35.1217 11.2027 34.8412C10.5383 32.3989 9.88711 29.9526 9.22891 27.5085C8.99062 26.6582 8.89413 25.7768 8.79413 24.9024C8.67187 25.681 8.61133 26.4724 8.40431 27.2373C7.73047 29.7539 7.05273 32.2715 6.37733 34.7883C6.30117 35.196 5.83594 35.2774 5.48984 35.2507C4.79961 35.2383 4.10938 35.2668 3.41992 35.2383C3.17421 35.239 2.98477 35.0473 2.94062 34.815C1.97189 31.2777 1.00625 27.7389 0.0367189 24.2024C0.00312499 24.0479 0.00742189 23.8902 0 23.7348Z" fill="#3069B5"/>
<path d="M87.0449 23.494C87.5488 23.4852 88.0547 23.4834 88.5586 23.494C88.8652 23.4982 89.1535 23.7083 89.25 24.0018C90.1204 26.2795 90.9845 28.5617 91.8535 30.8408C92.0352 31.3032 92.1622 31.7855 92.2435 32.2754C92.6028 30.9236 93.0812 29.6082 93.5012 28.2742C93.9687 26.8316 94.4368 25.3887 94.9062 23.9458C94.9758 23.6946 95.2148 23.5233 95.4687 23.5021C95.8801 23.4717 96.2942 23.4982 96.7062 23.4873C96.9474 23.4901 97.2344 23.4618 97.418 23.6554C97.5371 23.7564 97.5118 23.9242 97.4622 24.0553C96.0715 28.0284 94.6848 32.0035 93.2962 35.9777C93.0547 36.6397 92.8691 37.3327 92.4806 37.9281C91.923 38.835 91.0196 39.488 90.0266 39.8412C89.6797 39.9489 89.3215 40.1876 88.9485 40.0537C88.6836 39.986 88.582 39.7102 88.4407 39.5075C88.3391 39.3236 88.1516 39.1536 88.1906 38.9245C88.209 38.6977 88.3906 38.513 88.6048 38.4523C89.0235 38.3075 89.4492 38.1479 89.7884 37.8518C90.6126 37.1534 91.1223 36.1205 91.3165 35.0693C91.1848 34.6025 90.9414 34.1734 90.7648 33.7214C89.4388 30.6345 88.1126 27.5464 86.7833 24.4606C86.7031 24.2587 86.5851 24.0662 86.5625 23.8472C86.5656 23.6066 86.841 23.501 87.0449 23.494Z" fill="#3069B5"/>
<path d="M25.2121 24.9868C24.4887 25.1213 23.8289 25.5725 23.4617 26.2149C22.8481 27.2567 22.7774 28.5138 22.8051 29.6954C22.8487 30.765 23.0204 31.9059 23.7016 32.7706C24.2097 33.4209 25.0448 33.7475 25.8567 33.735C26.6375 33.76 27.4555 33.4951 27.9848 32.9004C28.6609 32.1599 28.8781 31.1321 28.9711 30.163C29.0121 29.211 29.0313 28.2419 28.7848 27.3124C28.5887 26.5271 28.1746 25.7419 27.4583 25.3188C26.7913 24.9093 25.9676 24.8709 25.2121 24.9868ZM25.5175 23.2926C26.8266 23.2121 28.198 23.4843 29.2785 24.2609C30.2448 24.9496 30.9012 26.0107 31.2079 27.1485C31.5723 28.5068 31.5707 29.9564 31.2402 31.3218C30.9289 32.5804 30.2009 33.767 29.1024 34.4823C27.9285 35.2625 26.4539 35.4652 25.0762 35.2989C23.9024 35.1541 22.7586 34.6383 21.9414 33.7722C20.9809 32.7644 20.504 31.3758 20.4048 30.0034C20.284 28.4814 20.5168 26.8703 21.3622 25.5705C21.9874 24.5923 22.9817 23.8737 24.0906 23.5458C24.5531 23.401 25.0356 23.3338 25.5175 23.2926Z" fill="#3069B5"/>
<path d="M64.1266 24.925C63.409 24.9712 62.7163 25.3848 62.396 26.0409C61.7703 27.2542 61.7575 28.6662 61.7887 30.0004C61.8386 30.872 61.9332 31.7718 62.3386 32.559C62.6129 33.0891 63.111 33.5078 63.6999 33.6361C64.6012 33.8532 65.6617 33.6695 66.3024 32.9562C66.9196 32.2523 67.1227 31.2954 67.2176 30.3896C67.2828 29.3571 67.2868 28.3035 67.0308 27.2929C66.855 26.6172 66.5575 25.9423 66.023 25.4727C65.5105 25.021 64.7965 24.8467 64.1266 24.925ZM67.2144 18.3795C67.1981 18.1057 67.4773 17.9308 67.7202 17.9097C68.109 17.8885 68.4988 17.8986 68.8882 17.903C69.1851 17.9002 69.5171 18.1213 69.4744 18.4515C69.4744 23.8406 69.4754 29.2288 69.4734 34.6171C69.4939 34.8952 69.2202 35.1111 68.9637 35.128C68.6539 35.1444 68.3433 35.1443 68.0347 35.1228C67.8171 35.1092 67.6063 34.9695 67.5321 34.761C67.4157 34.4108 67.355 34.047 67.2664 33.6908C66.8368 34.2746 66.2828 34.7912 65.5946 35.0473C64.6129 35.4092 63.5202 35.4152 62.5113 35.1687C61.4976 34.9245 60.6149 34.2269 60.1258 33.3086C59.3581 31.9068 59.2672 30.2578 59.3152 28.694C59.3425 27.3578 59.5973 25.9483 60.4664 24.8879C61.1219 23.9891 62.196 23.4735 63.2809 23.3386C64.2907 23.1907 65.3856 23.3607 66.2215 23.9735C66.6168 24.2522 66.9332 24.6258 67.2157 25.0163C67.2077 22.8046 67.2098 20.5921 67.2144 18.3795Z" fill="#3069B5"/>
<path d="M78.0792 24.9923C77.7191 25.0658 77.3703 25.2106 77.0792 25.4363C76.4973 25.8901 76.2082 26.6113 76.0537 27.3117C75.8292 28.4227 75.8324 29.5703 75.9484 30.6939C76.057 31.5195 76.264 32.4006 76.8682 33.0109C77.3604 33.5285 78.1027 33.7182 78.7973 33.6842C79.5441 33.7112 80.3214 33.4326 80.803 32.8449C81.4054 32.1152 81.5753 31.1446 81.6633 30.2302C81.7191 29.1552 81.7199 28.0542 81.4183 27.0103C81.2277 26.36 80.8792 25.7134 80.2913 25.3429C79.6438 24.9173 78.8246 24.878 78.0792 24.9923ZM77.0792 23.5165C78.1157 23.229 79.2249 23.2121 80.2718 23.4519C81.2445 23.6778 82.1555 24.2246 82.7531 25.0344C83.3851 25.8647 83.7043 26.8942 83.837 27.9199C83.9523 28.711 83.9191 29.5123 83.9202 30.3093C83.9202 31.7475 83.9202 33.1861 83.9163 34.624C83.9321 34.7992 83.8214 34.9546 83.6789 35.0457C83.4378 35.1943 83.1391 35.1287 82.8703 35.1455C82.5687 35.1432 82.1721 35.1697 82.0082 34.8555C81.848 34.4862 81.8147 34.0742 81.7121 33.6858C81.3077 34.178 80.889 34.6858 80.3038 34.9702C79.4124 35.4115 78.3703 35.3858 77.4163 35.199C76.2491 34.9683 75.1742 34.2769 74.514 33.2808C73.7277 32.1207 73.4425 30.6889 73.4534 29.3049C73.4438 27.956 73.7072 26.5613 74.4562 25.4199C75.055 24.4868 76.016 23.8112 77.0792 23.5165Z" fill="#3069B5"/>
<path d="M97.9535 32.3527C97.3608 32.5706 96.9878 33.2553 97.1392 33.8734C97.2934 34.5993 98.1363 35.0946 98.8395 34.8262C99.4878 34.6279 99.8969 33.8872 99.6956 33.2343C99.519 32.4995 98.6488 32.0652 97.9535 32.3527ZM98.0356 32.0425C98.387 31.9868 98.7691 31.9829 99.0953 32.1461C99.6509 32.3989 100.05 32.9964 99.9899 33.6176C100.036 34.3586 99.4137 35.021 98.7034 35.1404C97.9039 35.3106 97.0434 34.7304 96.8805 33.9315C96.6704 33.1274 97.2281 32.2224 98.0356 32.0425Z" fill="#3069B5"/>
<path d="M98.2043 32.9456C98.2031 33.1138 98.2023 33.2821 98.2043 33.4515C98.3516 33.4425 98.5031 33.4515 98.6484 33.4111C98.7851 33.3545 98.7715 33.1804 98.7344 33.0637C98.5931 32.9252 98.3828 32.9612 98.2043 32.9456ZM97.7598 32.6717C98.1848 32.696 98.6612 32.5759 99.0441 32.8133C99.3527 33.0453 99.2031 33.5501 98.8547 33.6576C98.9552 33.9238 99.0949 34.171 99.2226 34.4245C99.0617 34.4277 98.9035 34.4303 98.7453 34.4331C98.631 34.1983 98.5187 33.9609 98.4095 33.7241C98.3399 33.7222 98.2715 33.7214 98.2043 33.7202C98.2031 33.957 98.2031 34.1937 98.2031 34.4303C98.0527 34.4284 97.9056 34.4264 97.7578 34.4253C97.7591 33.8403 97.757 33.2554 97.7598 32.6717Z" fill="#3069B5"/>
</g>
<defs>
<clipPath id="clip0_1_358">
<rect width="100" height="40.0936" fill="white"/>
</clipPath>
</defs>
</svg>

<svg xmlns="http://www.w3.org/2000/svg" width="156.098" height="64" fill="none" viewBox="0 0 100 41"><g clip-path="url(#a)"><path fill="#F49813" d="M51.165.022a28.63 28.63 0 0 1 10.549 1.614c5.074 1.784 9.61 5.054 12.928 9.29a28.56 28.56 0 0 1 3.64 6.06c.17.36.301.764.21 1.165a1.594 1.594 0 0 1-1.377 1.295c-.703.103-1.43-.336-1.68-1A25.29 25.29 0 0 0 57.962 3.77a25.497 25.497 0 0 0-11.569-.003c-5.41 1.248-10.365 4.357-13.86 8.677a25.234 25.234 0 0 0-3.627 6.007c-.2.502-.659.895-1.194.983a1.589 1.589 0 0 1-1.437-.463 1.59 1.59 0 0 1-.344-1.665c2.538-6.011 7.238-11.06 13.016-14.066A28.486 28.486 0 0 1 51.165.022Z"/><path fill="#3069B5" d="M46.433 18.529c-.022-.312.273-.546.566-.553.38-.01.76-.007 1.14-.002.265.01.574.186.572.483.014 3.493-.008 6.986.012 10.481 1.413-1.574 2.838-3.139 4.256-4.707.28-.276.5-.694.934-.73.586-.024 1.172-.01 1.758-.01.226-.02.478.188.399.43-.093.186-.263.314-.402.461-1.533 1.535-3.072 3.064-4.597 4.605 1.473 1.685 2.926 3.387 4.393 5.077.189.241.425.445.583.71.116.208-.076.46-.298.47-.487.027-.975 0-1.463.012-.254-.006-.529.031-.76-.1-.242-.14-.39-.39-.564-.6-1.415-1.784-2.82-3.575-4.24-5.357-.015 1.757-.004 3.513-.005 5.268-.006.203.035.447-.14.595-.281.271-.699.176-1.049.194-.31-.01-.674.057-.926-.172-.14-.11-.177-.297-.172-.463.004-5.365-.001-10.729.003-16.092ZM39.994 23.463c.71-.229 1.51-.272 2.204.029.244.115.527.36.417.66-.111.379-.206.761-.339 1.133-.098.267-.407.366-.667.314-.585-.1-1.16-.294-1.76-.275-.419-.01-.805.215-1.091.507-.463.453-.702 1.085-.809 1.713-.085.454-.06.918-.065 1.377v5.781c.027.317-.3.532-.586.543-.392.006-.784.01-1.175-.003-.283-.015-.602-.222-.565-.54-.002-3.569-.004-7.136 0-10.704-.024-.355.369-.548.677-.515.386.026.913-.12 1.164.27.191.451.282.939.46 1.394.54-.74 1.253-1.393 2.135-1.684ZM0 23.735c.109-.125.236-.26.418-.248.532-.005 1.066-.017 1.597.008.27.008.456.245.496.497.523 2.13 1.036 4.264 1.557 6.395.153.658.339 1.31.438 1.979.103.601.123 1.211.22 1.814.135-.86.256-1.725.487-2.566l2.043-7.629a.626.626 0 0 1 .615-.496c.592-.015 1.186-.005 1.778-.005.317-.014.657.171.734.497.508 1.854 1.01 3.712 1.517 5.568.308 1.202.71 2.383.884 3.616.048.34.095.68.165 1.018.191-1.938.689-3.823 1.098-5.72.338-1.51.669-3.02 1.01-4.53.05-.303.371-.456.653-.447.48-.003.959-.016 1.437.008.284.008.447.323.347.576-.96 3.552-1.918 7.105-2.88 10.657a.621.621 0 0 1-.589.511c-.742.025-1.486.006-2.228.01-.266.017-.547-.126-.594-.407-.665-2.442-1.316-4.888-1.974-7.332-.238-.85-.335-1.732-.435-2.607-.122.779-.183 1.57-.39 2.335-.674 2.517-1.351 5.035-2.027 7.551-.076.408-.541.49-.887.463-.69-.013-1.38.016-2.07-.013-.246.001-.435-.19-.48-.423-.968-3.537-1.934-7.076-2.903-10.613-.034-.154-.03-.312-.037-.467ZM87.045 23.494c.504-.009 1.01-.01 1.514 0a.753.753 0 0 1 .691.508c.87 2.277 1.734 4.56 2.603 6.839.182.462.31.944.39 1.434.36-1.351.838-2.667 1.258-4l1.405-4.33a.636.636 0 0 1 .563-.443c.411-.03.825-.004 1.237-.015.241.003.528-.025.712.168.12.101.094.27.044.4-1.39 3.973-2.777 7.949-4.166 11.923-.241.662-.427 1.355-.815 1.95-.558.907-1.461 1.56-2.454 1.913-.347.108-.706.347-1.079.213-.264-.068-.366-.344-.507-.547-.102-.183-.29-.353-.25-.582.018-.227.2-.412.414-.473.418-.145.844-.304 1.183-.6.825-.699 1.334-1.731 1.529-2.783-.132-.467-.376-.896-.552-1.348-1.326-3.086-2.652-6.175-3.982-9.26-.08-.202-.198-.395-.22-.614.003-.24.278-.346.482-.353ZM25.212 24.987a2.573 2.573 0 0 0-1.75 1.228c-.614 1.042-.685 2.299-.657 3.48.044 1.07.215 2.21.897 3.076.508.65 1.343.977 2.155.964.78.025 1.599-.24 2.128-.835.676-.74.893-1.768.986-2.737.041-.952.06-1.921-.186-2.85-.196-.786-.61-1.571-1.327-1.994-.667-.41-1.49-.448-2.246-.332Zm.305-1.694c1.31-.08 2.681.191 3.762.968.966.689 1.622 1.75 1.929 2.887a8.485 8.485 0 0 1 .032 4.174c-.311 1.258-1.04 2.445-2.138 3.16-1.174.78-2.648.983-4.026.817-1.174-.145-2.317-.66-3.135-1.527-.96-1.008-1.437-2.396-1.536-3.769-.121-1.522.112-3.133.957-4.433.625-.978 1.62-1.696 2.729-2.024.462-.145.945-.212 1.426-.253ZM64.127 24.925c-.718.046-1.41.46-1.731 1.116-.626 1.213-.639 2.625-.607 3.96.05.871.144 1.77.55 2.558.274.53.772.949 1.36 1.077.902.217 1.963.033 2.603-.68.618-.704.82-1.66.916-2.566.065-1.033.069-2.087-.187-3.097-.176-.676-.474-1.35-1.008-1.82-.513-.452-1.227-.626-1.896-.548Zm3.087-6.546c-.016-.273.263-.448.506-.47.389-.02.779-.01 1.168-.006.297-.003.63.218.586.549v16.165c.02.278-.254.494-.51.511-.31.016-.62.016-.93-.005a.574.574 0 0 1-.502-.362c-.116-.35-.177-.714-.266-1.07-.43.584-.983 1.1-1.671 1.356-.982.362-2.075.368-3.084.122a3.731 3.731 0 0 1-2.385-1.86c-.768-1.402-.859-3.051-.81-4.615.026-1.336.281-2.746 1.15-3.806.656-.899 1.73-1.415 2.815-1.55 1.01-.147 2.105.023 2.94.636.396.278.712.652.995 1.042-.008-2.211-.006-4.424-.002-6.636ZM78.08 24.992a2.42 2.42 0 0 0-1 .444c-.583.454-.872 1.175-1.026 1.876-.225 1.11-.222 2.258-.106 3.382.109.826.316 1.707.92 2.317.492.517 1.235.707 1.93.673.746.027 1.523-.251 2.005-.84.602-.729.772-1.7.86-2.614.056-1.075.057-2.176-.245-3.22-.19-.65-.539-1.297-1.127-1.667-.647-.426-1.466-.465-2.212-.35Zm-1-1.476a6.544 6.544 0 0 1 3.192-.064c.972.226 1.883.773 2.481 1.582.632.83.951 1.86 1.084 2.886.115.791.082 1.592.083 2.39 0 1.438 0 2.876-.004 4.314.016.175-.095.33-.237.422-.241.148-.54.083-.809.1-.301-.003-.698.024-.862-.29-.16-.37-.193-.782-.296-1.17-.404.492-.823 1-1.408 1.284-.892.441-1.934.416-2.888.229-1.167-.23-2.242-.922-2.902-1.918-.786-1.16-1.072-2.592-1.06-3.976-.01-1.349.253-2.744 1.002-3.885.599-.933 1.56-1.609 2.623-1.904ZM97.954 32.353c-.593.218-.966.902-.815 1.52.154.726.997 1.222 1.7.953.649-.198 1.058-.939.857-1.592-.177-.735-1.047-1.169-1.742-.881Zm.082-.31c.351-.056.733-.06 1.06.103.555.253.954.85.894 1.472.046.74-.576 1.403-1.287 1.522-.8.17-1.66-.41-1.823-1.209-.21-.804.348-1.709 1.156-1.889Z"/><path fill="#3069B5" d="M98.204 32.946a26.66 26.66 0 0 0 0 .506c.148-.01.3 0 .444-.04.137-.057.124-.232.086-.348-.14-.139-.351-.103-.53-.118Zm-.444-.274c.425.024.901-.096 1.284.141.309.232.16.737-.19.845.101.266.24.513.369.767l-.478.008a37.538 37.538 0 0 1-.336-.709l-.205-.004v.71l-.446-.005c.001-.585-.001-1.17.002-1.753Z"/></g><defs><clipPath id="a"><path fill="#fff" d="M0 0h100v40.094H0z"/></clipPath></defs></svg>
